!! 00000] TT[WS
!!!OTL: Tianshan yuge beidouxing
!!!ARE: Asia, China, Shanxi Xixian
!! Ethnic Group: Han
!! WI, 276 (1)
!!!SCT: J0328
!!!YEM: Copyright 1995, estate of Helmut Schaffrath.
**kern
*ICvox
*Ivox
*M2/4
*k[b-]
*F:
{4dd
4cc
=1
4a
4g
=2
4.a
8bn
=3
2a}
=4
{8g
8a
4cc
=5
8cc
8a
4g
=6
8a
8g
8f
8e
=7
4d
4r}
=8
{4dd
8a
8cc
=9
4dd
8a
8cc
=10
4dd
8gg
8ee
=11
4dd
8dd
8cc}
=12
{4g
4cc
=13
4a
8a
8g
=14
8a
8g
8f
8e
=15
4d
4r}
==
!!!AGN: Xiaodiao. Xinminge, Xuanchuan
!! Neue Text. Politische Liede
!!!ONB: ESAC (Essen Associative Code) Database: CHINA
!!!AMT: simple duple
!!!AIN: vox
!!!EED: Helmut Schaffrath
!!!EEV: 1.0
*-
